X:1
T:Larid Sunfolk 1
Z:Ren Quiniou (http://www.irisa.fr/prive/quiniou)
R:
C:Trad.
S:
A:Bretagne
M:4/4
L:1/8
K:Am
cBAB cd e2 | cd e2  dc B2 | cBAB cd e2 | cd e2  dc B2 :|\
(3eee ed ec A2| (3ccc BA GA B2 | (3eee ed ec A2| (3ccc BA Bc A2 :|
